X: 21808
T: Kings Of Inishbofin, The
R: jig
M: 6/8
K: Dmajor
B|Ad{e}d dAF|GE{G}E E2B|Ace {g}fed|ceB AGE|
FAd {g}fdA|GE{G}E ~E2B|Ace {g}fed|B{d}cA d2:|
g|~f3 fdA|Bz g- {a}gec|A2g- {a}gec|Ace bag|
~f3 fdA|Bz g- {a}gec|Ace bag|f{a}ge d2B|
A2f AfA|B2 g- {a}gec|A2g- {a}gec|Ace bag|
~f3 fdA|Bz g- {a}gec|A(c/d/e) bag|f{a}ge d3||

